inst/assets/svg/wi-direction-up-left.svg

<?xml version="1.0" encoding="UTF-8"?>
<svg xmlns="http://www.w3.org/2000/svg" xmlns:xlink="http://www.w3.org/1999/xlink" width="30pt" height="30pt" viewBox="0 0 30 30" version="1.1">
<g id="surface206">
<path style=" stroke:none;fill-rule:nonzero;fill:rgb(0%,0%,0%);fill-opacity:1;" d="M 10.03125 14.308594 L 10.03125 9.839844 C 10.03125 9.539063 10.128906 9.289063 10.328125 9.089844 C 10.53125 8.890625 10.78125 8.789063 11.070313 8.789063 L 15.550781 8.789063 C 15.839844 8.789063 16.089844 8.890625 16.289063 9.089844 C 16.488281 9.289063 16.589844 9.539063 16.589844 9.839844 C 16.589844 10.128906 16.488281 10.371094 16.289063 10.570313 C 16.089844 10.769531 15.839844 10.859375 15.550781 10.859375 L 13.601563 10.859375 L 19.660156 16.921875 C 19.839844 17.128906 19.921875 17.378906 19.921875 17.699219 C 19.921875 17.988281 19.828125 18.230469 19.660156 18.421875 C 19.460938 18.609375 19.199219 18.699219 18.871094 18.699219 C 18.570313 18.699219 18.320313 18.609375 18.140625 18.421875 L 12.121094 12.371094 L 12.121094 14.320313 C 12.121094 14.621094 12.019531 14.871094 11.820313 15.070313 C 11.621094 15.269531 11.371094 15.371094 11.070313 15.371094 C 10.78125 15.371094 10.53125 15.269531 10.328125 15.058594 C 10.128906 14.851563 10.03125 14.601563 10.03125 14.308594 Z M 10.03125 14.308594 "/>
</g>
</svg>

<?xml version="1.0" encoding="utf-8"?>
<!-- Generator: Adobe Illustrator 22.0.1, SVG Export Plug-In . SVG Version: 6.00 Build 0)  -->
<svg version="1.1" id="Layer_1" xmlns="http://www.w3.org/2000/svg" xmlns:xlink="http://www.w3.org/1999/xlink" x="0px" y="0px"
	 viewBox="0 0 30 30" style="enable-background:new 0 0 30 30;" xml:space="preserve">
<path d="M10.03,14.31V9.84c0-0.3,0.1-0.55,0.3-0.75s0.45-0.3,0.74-0.3h4.48c0.29,0,0.54,0.1,0.74,0.3s0.3,0.45,0.3,0.75
	c0,0.29-0.1,0.53-0.3,0.73s-0.45,0.29-0.74,0.29h-1.95l6.06,6.06c0.18,0.21,0.26,0.46,0.26,0.78c0,0.29-0.09,0.53-0.26,0.72
	c-0.2,0.19-0.46,0.28-0.79,0.28c-0.3,0-0.55-0.09-0.73-0.28l-6.02-6.05v1.95c0,0.3-0.1,0.55-0.3,0.75c-0.2,0.2-0.45,0.3-0.75,0.3
	c-0.29,0-0.54-0.1-0.74-0.31S10.03,14.6,10.03,14.31z"/>
</svg>
